_src/static/img/icon/quotes.svg

<svg width="73" height="62" viewBox="0 0 73 62" fill="none" xmlns="http://www.w3.org/2000/svg">
<path fill-rule="evenodd" clip-rule="evenodd" d="M0 52.3167C10.9338 46.9371 16.4006 40.6161 16.4006 33.3536C11.7403 32.8156 7.88662 30.9104 4.83951 27.6377C1.79239 24.3651 0.26886 20.577 0.26886 16.2733C0.26886 11.7006 1.74758 7.84528 4.70508 4.70716C7.66257 1.56904 11.3818 0 15.8628 0C20.8816 0 25.2282 2.03975 28.9026 6.11931C32.5771 10.1989 34.4143 15.1525 34.4143 20.9805C34.4143 38.4643 24.6457 52.1373 5.10837 62L0 52.3167ZM38.5857 52.3167C49.6091 46.9371 55.1207 40.6161 55.1207 33.3536C50.3708 32.8156 46.4723 30.9104 43.4252 27.6377C40.3781 24.3651 38.8546 20.577 38.8546 16.2733C38.8546 11.7006 40.3557 7.84528 43.358 4.70716C46.3603 1.56904 50.1019 0 54.583 0C59.6018 0 63.9259 2.03975 67.5556 6.11931C71.1852 10.1989 73 15.1525 73 20.9805C73 38.4643 63.2763 52.1373 43.8285 62L38.5857 52.3167Z" fill="#DFDFDF"/>
</svg>

<svg width="73" height="62" fill="none" xmlns="http://www.w3.org/2000/svg"><path fill-rule="evenodd" clip-rule="evenodd" d="M0 52.317c10.934-5.38 16.4-11.7 16.4-18.963-4.66-.538-8.513-2.444-11.56-5.716C1.792 24.365.269 20.577.269 16.273c0-4.572 1.479-8.428 4.436-11.566C7.663 1.57 11.382 0 15.863 0c5.019 0 9.365 2.04 13.04 6.12 3.674 4.079 5.511 9.033 5.511 14.86 0 17.484-9.768 31.157-29.306 41.02L0 52.317zm38.586 0c11.023-5.38 16.535-11.7 16.535-18.963-4.75-.538-8.649-2.444-11.696-5.716-3.047-3.273-4.57-7.061-4.57-11.365 0-4.572 1.5-8.428 4.503-11.566C46.36 1.57 50.102 0 54.583 0c5.019 0 9.343 2.04 12.973 6.12C71.186 10.198 73 15.152 73 20.98 73 38.465 63.276 52.138 43.828 62l-5.242-9.683z" fill="#DFDFDF"/></svg>
